!!!!SEGMENT: pl-wtm--r-1540--001-003_stefani-jozef--missa-graduale.krn
!!!cenid: 18xx:1771
!!!COM: Stefani, Józef
!!!COM-rismID: pe30024097
!!!CDT: 1800/04/16-1876/03/19
!!!CNT: Polish
!!!OPR: Missa
!!!OTL: Graduale
!!!OMV: 003
!!!PDT:
!!!AGN: Sacred; Mass
!!!YEC: Copyright 2022 Narodowy Instytut Fryderyka Chopina (https://polishscores.org)
!!!YEM: License CC-BY-4.0 (https://creativecommons.org/licenses/by/4.0)
!!!SMS-siglum: PL-Wtm
!!!SMS-shelfmark: R 1540
!!!SMS-shelfwork: 001-003 M
!!!SMS-variant:
!!!SMS-altvar:
!!!NIFC-rismSourceID: 1001120486
!!!NIFC-rismChildID: 1001120486
!!!NIFC-islandoraID: pl-wtm:26331
!!!URL-pdf-islandora: https://repozytorium.nifc.pl/islandora/object/pl-wtm%3A26331/datastream/PDF/view
!!!URL-scan: https://polish.musicsources.pl/pl/lokalizacje/galeria/rekopisy/6341 @EN{Scan on Polish Music Sources Website} @PL{Skany w portalu Dziedzictwo Muzyki Polskiej w otwartym dostępie}
!!!IIIF:
!!!ONB-nifc: UWAGA: części Mszy: 1. Kyrie, 2. Gloria, 3. Graduale, 4. Credo, 5. Offertorium, 6. Sanctus, 7. Benedictus, 8. Agnus Dei. Na końcu rękopisu partie puzonów, trąbek i kotłów
!!!OMD: Andantino.
!!!AIN: 1 clars 1 cor 3 empty 1 fagot 1 flt 1 oboe 1 organ 2 soprn 2 tenor 1 timpa 1 tromp 1 tromt 1 viola 2 violn
!!!key:
**kern	**kern	**kern	**kern	**kern	**kern	**text	**dynam	**kern	**dynam	**kern	**text	**dynam	**kern	**kern	**kern	**kern	**kern	**kern	**kern	**kern	**kern	**kern	**kern
*part19	*part18	*part17	*part16	*part15	*part14	*	*	*part13	*	*part12	*	*	*part11	*part10	*part9	*part8	*part7	*part6	*part5	*part4	*part3	*part2	*part1
*staff19	*staff18	*staff17	*staff16	*staff15	*staff14	*	*	*staff13	*	*staff12	*	*	*staff11	*staff10	*staff9	*staff8	*staff7	*staff6	*staff5	*staff4	*staff3	*staff2	*staff1
*Itimpa	*Itromt	*Itromp	*Iempty	*Iorgan	*Iempty	*	*	*Itenor	*	*Itenor	*	*	*Isoprn	*Isoprn	*Iempty	*Iviola	*Ivioln	*Ivioln	*Ifagot	*Icor	*Iclars	*Ioboe	*Iflt
*I"Timpani C. G.	*I"Trombone	*I"Trombe in C	*	*I"Organo.	*I"Baſso	*	*	*I"[Tenore Secondo]	*	*I"Tenori	*	*	*I"2do. Soprano	*I"1o. Soprano	*I"Baſsi	*I"Viole	*I"[Violino Secondo]	*I"Violini	*I"Fagoto	*I"Corni in C	*I"Clarinetti in C	*I"Oboe	*I"Flauto
*I'timp	*I'trb	*I'tr in C	*I'org	*I'org	*I'B	*	*	*I'T 2	*	*I'T 1	*	*	*I'S 2	*I'S 1	*I'b	*I'vla	*I'vl 2	*I'vl 1	*I'fag	*I'cor in C	*I'cl in C	*I'ob	*I'fl
*clefF4	*clefF4	*clefG2	*clefF4	*clefG2	*clefF4	*	*	*clefC4	*	*clefC4	*	*	*clefG2	*clefG2	*clefF4	*clefC3	*clefG2	*clefG2	*clefF4	*clefG2	*clefG2	*clefG2	*clefG2
*	*	*	*	*	*	*	*	*	*	*	*	*	*	*	*	*	*	*	*	*Trd0c0	*	*	*
*k[b-e-a-d-]	*k[b-e-a-d-]	*k[b-e-a-d-]	*k[b-e-a-d-]	*k[b-e-a-d-]	*k[b-e-a-d-]	*	*	*k[b-e-a-d-]	*	*k[b-e-a-d-]	*	*	*k[b-e-a-d-]	*k[b-e-a-d-]	*k[b-e-a-d-]	*k[b-e-a-d-]	*k[b-e-a-d-]	*k[b-e-a-d-]	*k[b-e-a-d-]	*k[b-e-a-d-]	*k[b-e-a-d-]	*k[b-e-a-d-]	*k[b-e-a-d-]
*A-:	*A-:	*A-:	*A-:	*A-:	*A-:	*	*	*A-:	*	*A-:	*	*	*A-:	*A-:	*A-:	*A-:	*A-:	*A-:	*A-:	*A-:	*A-:	*A-:	*A-:
*M4/2	*M4/2	*M4/2	*M4/2	*M4/2	*M4/2	*	*	*M4/2	*	*M4/2	*	*	*M4/2	*M4/2	*M4/2	*M4/2	*M4/2	*M4/2	*M4/2	*M4/2	*M4/2	*M4/2	*M4/2
=1	=1	=1	=1	=1	=1	=1	=1	=1	=1	=1	=1	=1	=1	=1	=1	=1	=1	=1	=1	=1	=1	=1	=1
*	*	*	*	*	*2\right	*	*	*2\right	*	*2\right	*	*	*	*	*	*	*	*	*	*	*	*	*
!	!	!	!	!	!	!	!	!	!	!LO:TX:a:Bi:t=Solo.	!	!	!	!	!	!	!	!	!	!	!	!	!
!	!	!LO:TX:a:Bi:t=Graduale tacet:problem=w źródle wspólne oznaczenie dla kotłów puzonów i trąbek	!	!	!	!	!	!	!	!	!	!	!	!	!	!	!	!	!	!	!	!	!
!	!	!	!	!	!	!	!	!	!	!	!	!	!	!LO:TX:a:t=P:problem=przyjęta kolejność głosów zgodnie z początkiem partytury w części Kyrie; w źródle głosy Sopranowe pod tenorowymi i basowym	!	!	!	!	!	!	!	!	!
!	!	!	!	!	!	!	!LO:DY:a:rj	!	!	!	!	!LO:DY:a:Bi:t=%s.:rj	!	!	!	!	!	!	!	!	!	!	!
0ryy	0ryy	0ryy	0ryy	0ryy	2AA-/	A-	p	2A-\	.	2c\	.	p	0ryy	0ryy	0ryy	0ryy	0ryy	0ryy	0ryy	0ryy	0ryy	0ryy	0ryy
.	.	.	.	.	2AA-/	-ve	.	2A-\	.	2c\	.	.	.	.	.	.	.	.	.	.	.	.	.
.	.	.	.	.	2AA-/	Ma-	.	2A-\	.	2c\	.	.	.	.	.	.	.	.	.	.	.	.	.
.	.	.	.	.	2AA-/	-ris	.	2A-\	.	2c\	.	.	.	.	.	.	.	.	.	.	.	.	.
=2	=2	=2	=2	=2	=2	=2	=2	=2	=2	=2	=2	=2	=2	=2	=2	=2	=2	=2	=2	=2	=2	=2	=2
0ryy	0ryy	0ryy	0ryy	0ryy	1E-	stel-	.	1G	.	1B-	.	.	0ryy	0ryy	0ryy	0ryy	0ryy	0ryy	0ryy	0ryy	0ryy	0ryy	0ryy
.	.	.	.	.	1AA-	-la	.	1A-	.	1c	.	.	.	.	.	.	.	.	.	.	.	.	.
=3	=3	=3	=3	=3	=3	=3	=3	=3	=3	=3	=3	=3	=3	=3	=3	=3	=3	=3	=3	=3	=3	=3	=3
0ryy	0ryy	0ryy	0ryy	0ryy	2BB-/	De-	.	2F/	.	2e-\	.	.	0ryy	0ryy	0ryy	0ryy	0ryy	0ryy	0ryy	0ryy	0ryy	0ryy	0ryy
.	.	.	.	.	2BB-/	-i	.	2G/	.	2d-\	.	.	.	.	.	.	.	.	.	.	.	.	.
.	.	.	.	.	2AA-/	Ma-	.	2A-/	.	2c\	.	.	.	.	.	.	.	.	.	.	.	.	.
.	.	.	.	.	2E-\	-ter	.	2G/	.	2B-\	.	.	.	.	.	.	.	.	.	.	.	.	.
=4	=4	=4	=4	=4	=4	=4	=4	=4	=4	=4	=4	=4	=4	=4	=4	=4	=4	=4	=4	=4	=4	=4	=4
0ryy	0ryy	0ryy	0ryy	0ryy	1AA-	al-	.	1A-	.	1c	.	.	0ryy	0ryy	0ryy	0ryy	0ryy	0ryy	0ryy	0ryy	0ryy	0ryy	0ryy
.	.	.	.	.	1AA-	-ma,	.	1A-	.	1c	.	.	.	.	.	.	.	.	.	.	.	.	.
=5	=5	=5	=5	=5	=5	=5	=5	=5	=5	=5	=5	=5	=5	=5	=5	=5	=5	=5	=5	=5	=5	=5	=5
0ryy	0ryy	0ryy	0ryy	0ryy	2E-\	At-	.	2G/	.	2B-\	.	.	0ryy	0ryy	0ryy	0ryy	0ryy	0ryy	0ryy	0ryy	0ryy	0ryy	0ryy
.	.	.	.	.	2E-\	-que	.	2G/	.	2B-\	.	.	.	.	.	.	.	.	.	.	.	.	.
.	.	.	.	.	2A-\	sem-	.	2A-/	.	2c\	.	.	.	.	.	.	.	.	.	.	.	.	.
.	.	.	.	.	2F\	-per	.	2A-/	.	2dn\	.	.	.	.	.	.	.	.	.	.	.	.	.
!!LO:LB:g=original
=6	=6	=6	=6	=6	=6	=6	=6	=6	=6	=6	=6	=6	=6	=6	=6	=6	=6	=6	=6	=6	=6	=6	=6
0ryy	0ryy	0ryy	0ryy	0ryy	1E-	vir-	.	1G	.	1e-	.	.	0ryy	0ryy	0ryy	0ryy	0ryy	0ryy	0ryy	0ryy	0ryy	0ryy	0ryy
.	.	.	.	.	1AA-	-go	.	1A-	.	1c	.	.	.	.	.	.	.	.	.	.	.	.	.
=7	=7	=7	=7	=7	=7	=7	=7	=7	=7	=7	=7	=7	=7	=7	=7	=7	=7	=7	=7	=7	=7	=7	=7
0ryy	0ryy	0ryy	0ryy	0ryy	2BB-/	Fe-	.	2G/	.	2B-\	.	.	0ryy	0ryy	0ryy	0ryy	0ryy	0ryy	0ryy	0ryy	0ryy	0ryy	0ryy
.	.	.	.	.	2BB-/	-lix	.	2G/	.	2e-\	.	.	.	.	.	.	.	.	.	.	.	.	.
.	.	.	.	.	2BB-/	cae-	.	2F/	.	2e-\	.	.	.	.	.	.	.	.	.	.	.	.	.
.	.	.	.	.	2BB-/	-li	.	2F/	.	2dn\	.	.	.	.	.	.	.	.	.	.	.	.	.
=8	=8	=8	=8	=8	=8	=8	=8	=8	=8	=8	=8	=8	=8	=8	=8	=8	=8	=8	=8	=8	=8	=8	=8
0ryy	0ryy	0ryy	0ryy	0ryy	1E-	por-	.	1G	.	1e-	.	.	0ryy	0ryy	0ryy	0ryy	0ryy	0ryy	0ryy	0ryy	0ryy	0ryy	0ryy
.	.	.	.	.	1E-	-ta	.	1G	.	1e-	.	.	.	.	.	.	.	.	.	.	.	.	.
=9	=9	=9	=9	=9	=9	=9	=9	=9	=9	=9	=9	=9	=9	=9	=9	=9	=9	=9	=9	=9	=9	=9	=9
*	*	*	*	*	*	*	*	*	*	*	*	*	*2\right	*2\right	*	*	*	*	*	*	*	*	*
!	!	!	!	!	!	!	!	!	!	!LO:TX:a:Bi:t=tutti	!	!	!	!	!	!	!	!	!	!	!	!	!
!	!	!	!	!	!	!	!LO:DY:a:rj	!	!LO:DY:a:rj	!	!	!LO:DY:a:rj	!	!	!	!	!	!	!	!	!	!	!
0ryy	0ryy	0ryy	0ryy	0ryy	2AA-/	A-	f	2A-\	f	2c\	.	f	2a-/	2cc\	0ryy	0ryy	0ryy	0ryy	0ryy	0ryy	0ryy	0ryy	0ryy
.	.	.	.	.	2AA-/	-ve	.	2A-\	.	2c\	.	.	2a-/	2cc\	.	.	.	.	.	.	.	.	.
.	.	.	.	.	2AA-/	Ma-	.	2A-\	.	2c\	.	.	2a-/	2cc\	.	.	.	.	.	.	.	.	.
.	.	.	.	.	2AA-/	-ris	.	2A-\	.	2c\	.	.	2a-/	2cc\	.	.	.	.	.	.	.	.	.
=10	=10	=10	=10	=10	=10	=10	=10	=10	=10	=10	=10	=10	=10	=10	=10	=10	=10	=10	=10	=10	=10	=10	=10
0ryy	0ryy	0ryy	0ryy	0ryy	1E-	Stel-	.	1G	.	1B-	.	.	1g	1b-	0ryy	0ryy	0ryy	0ryy	0ryy	0ryy	0ryy	0ryy	0ryy
.	.	.	.	.	1AA-	-la	.	1A-	.	1c	.	.	1a-	1cc	.	.	.	.	.	.	.	.	.
!!LO:LB:g=original
=11	=11	=11	=11	=11	=11	=11	=11	=11	=11	=11	=11	=11	=11	=11	=11	=11	=11	=11	=11	=11	=11	=11	=11
0ryy	0ryy	0ryy	0ryy	0ryy	2BB-/	De-	.	2F/	.	2e-\	.	.	2f/	2ee-\	0ryy	0ryy	0ryy	0ryy	0ryy	0ryy	0ryy	0ryy	0ryy
.	.	.	.	.	2BB-/	-i	.	2G/	.	2d-\	.	.	2g/	2dd-\	.	.	.	.	.	.	.	.	.
.	.	.	.	.	2AA-/	Ma-	.	2A-/	.	2c\	.	.	2a-/	2cc\	.	.	.	.	.	.	.	.	.
.	.	.	.	.	2E-\	-ter	.	2G/	.	2B-\	.	.	2g/	2b-\	.	.	.	.	.	.	.	.	.
=12	=12	=12	=12	=12	=12	=12	=12	=12	=12	=12	=12	=12	=12	=12	=12	=12	=12	=12	=12	=12	=12	=12	=12
0ryy	0ryy	0ryy	0ryy	0ryy	1AA-	al-	.	1A-	.	1c	.	.	1a-	1cc	0ryy	0ryy	0ryy	0ryy	0ryy	0ryy	0ryy	0ryy	0ryy
.	.	.	.	.	1AA-	-ma,	.	1A-	.	1c	.	.	1a-	1cc	.	.	.	.	.	.	.	.	.
=13	=13	=13	=13	=13	=13	=13	=13	=13	=13	=13	=13	=13	=13	=13	=13	=13	=13	=13	=13	=13	=13	=13	=13
0ryy	0ryy	0ryy	0ryy	0ryy	2E-\	At-	.	2G/	.	2B-\	.	.	2g/	2b-\	0ryy	0ryy	0ryy	0ryy	0ryy	0ryy	0ryy	0ryy	0ryy
.	.	.	.	.	2E-\	-que	.	2G/	.	2B-\	.	.	2g/	2b-\	.	.	.	.	.	.	.	.	.
.	.	.	.	.	2A-\	sem-	.	2A-/	.	2c\	.	.	2a-/	2cc\	.	.	.	.	.	.	.	.	.
.	.	.	.	.	2F\	-per	.	2A-/	.	2dn\	.	.	2a-/	2ddn\	.	.	.	.	.	.	.	.	.
=14	=14	=14	=14	=14	=14	=14	=14	=14	=14	=14	=14	=14	=14	=14	=14	=14	=14	=14	=14	=14	=14	=14	=14
0ryy	0ryy	0ryy	0ryy	0ryy	1E-	vir-	.	1G	.	1e-	.	.	1g	1ee-	0ryy	0ryy	0ryy	0ryy	0ryy	0ryy	0ryy	0ryy	0ryy
.	.	.	.	.	1AA-	-go	.	1A-	.	1c	.	.	1a-	1cc	.	.	.	.	.	.	.	.	.
=15	=15	=15	=15	=15	=15	=15	=15	=15	=15	=15	=15	=15	=15	=15	=15	=15	=15	=15	=15	=15	=15	=15	=15
0ryy	0ryy	0ryy	0ryy	0ryy	2BB-/	Fe-	.	2G/	.	2B-\	.	.	2g/	2b-\	0ryy	0ryy	0ryy	0ryy	0ryy	0ryy	0ryy	0ryy	0ryy
.	.	.	.	.	2BB-/	-lix	.	2G/	.	2e-\	.	.	2g/	2ee-\	.	.	.	.	.	.	.	.	.
.	.	.	.	.	2BB-/	cae-	.	2F/	.	2e-\	.	.	2f/	2ee-\	.	.	.	.	.	.	.	.	.
.	.	.	.	.	2BB-/	-li	.	2F/	.	2dn\	.	.	2f/	2ddn\	.	.	.	.	.	.	.	.	.
!!LO:PB:g=original
=16	=16	=16	=16	=16	=16	=16	=16	=16	=16	=16	=16	=16	=16	=16	=16	=16	=16	=16	=16	=16	=16	=16	=16
0ryy	0ryy	0ryy	0ryy	0ryy	1E-	por-	.	1G	.	1e-	.	.	1g	1ee-	0ryy	0ryy	0ryy	0ryy	0ryy	0ryy	0ryy	0ryy	0ryy
.	.	.	.	.	1E-	-ta	.	1G	.	1e-	.	.	1g	1ee-	.	.	.	.	.	.	.	.	.
=17||	=17||	=17||	=17||	=17||	=17||	=17||	=17||	=17||	=17||	=17||	=17||	=17||	=17||	=17||	=17||	=17||	=17||	=17||	=17||	=17||	=17||	=17||	=17||
!	!	!	!	!	!	!	!	!	!	!LO:TX:a:Bi:t=Solo	!	!	!	!	!	!	!	!	!	!	!	!	!
!	!	!	!	!	!	!	!LO:DY:a:rj	!	!LO:DY:a:rj	!	!	!LO:DY:a:rj	!	!	!	!	!	!	!	!	!	!	!
0ryy	0ryy	0ryy	0ryy	0ryy	2D-\	lu-	p	2A-/	p	2f\	.	p	0ryy	0ryy	0ryy	0ryy	0ryy	0ryy	0ryy	0ryy	0ryy	0ryy	0ryy
.	.	.	.	.	2D-\	-mens	.	2A-/	.	2f\	.	.	.	.	.	.	.	.	.	.	.	.	.
.	.	.	.	.	2D-\	i-	.	2G/	.	2d-\	.	.	.	.	.	.	.	.	.	.	.	.	.
.	.	.	.	.	2D-\	-lud	.	2F/	.	2B-\	.	.	.	.	.	.	.	.	.	.	.	.	.
=18	=18	=18	=18	=18	=18	=18	=18	=18	=18	=18	=18	=18	=18	=18	=18	=18	=18	=18	=18	=18	=18	=18	=18
0ryy	0ryy	0ryy	0ryy	0ryy	[>1E-	a-	.	1E-	.	1G	.	.	0ryy	0ryy	0ryy	0ryy	0ryy	0ryy	0ryy	0ryy	0ryy	0ryy	0ryy
.	.	.	.	.	2E-\]	.	.	1G	.	1B-	.	.	.	.	.	.	.	.	.	.	.	.	.
.	.	.	.	.	2D-\	-ve	.	.	.	.	.	.	.	.	.	.	.	.	.	.	.	.	.
=19	=19	=19	=19	=19	=19	=19	=19	=19	=19	=19	=19	=19	=19	=19	=19	=19	=19	=19	=19	=19	=19	=19	=19
!	!	!	!	!	!	!	!	!	!	!LO:TX:a:Bi:t=tutti	!	!	!	!	!	!	!	!	!	!	!	!	!
!	!	!	!	!	!	!	!LO:DY:a:rj	!	!LO:DY:a:rj	!	!	!LO:DY:a:rj	!	!	!	!	!	!	!	!	!	!	!
0ryy	0ryy	0ryy	0ryy	0ryy	2C/	Ga-	f	2A-/	f	2A-\	.	f	2a-/	2a-/	0ryy	0ryy	0ryy	0ryy	0ryy	0ryy	0ryy	0ryy	0ryy
.	.	.	.	.	2C/	-bri-	.	2A-/	.	2e-\	.	.	2a-/	2ee-\	.	.	.	.	.	.	.	.	.
.	.	.	.	.	2BB-/	-e-	.	2G/	.	2d-\	.	.	2g/	2dd-\	.	.	.	.	.	.	.	.	.
.	.	.	.	.	2AA-/	-lis	.	2A-\	.	2c\	.	.	2a-/	2cc\	.	.	.	.	.	.	.	.	.
=20	=20	=20	=20	=20	=20	=20	=20	=20	=20	=20	=20	=20	=20	=20	=20	=20	=20	=20	=20	=20	=20	=20	=20
0ryy	0ryy	0ryy	0ryy	0ryy	1E-;>	o-	.	1A-;>	.	1c;>	.	.	1a-;>	1cc;>	0ryy	0ryy	0ryy	0ryy	0ryy	0ryy	0ryy	0ryy	0ryy
.	.	.	.	.	1E-;>	-ra	.	1G;>	.	1B-;>	.	.	1g;>	1b-;>	.	.	.	.	.	.	.	.	.
!!LO:LB:g=original
=21	=21	=21	=21	=21	=21	=21	=21	=21	=21	=21	=21	=21	=21	=21	=21	=21	=21	=21	=21	=21	=21	=21	=21
!	!	!	!	!	!	!	!	!	!	!LO:TX:a:Bi:t=Solo	!	!	!	!	!	!	!	!	!	!	!	!	!
!	!	!	!	!	!	!	!LO:DY:a:rj	!	!	!	!	!LO:DY:a:rj	!	!	!	!	!	!	!	!	!	!	!
0ryy	0ryy	0ryy	0ryy	0ryy	2AA-/	Fun-	p	2A-\	.	2c\	.	p	0ryy	0ryy	0ryy	0ryy	0ryy	0ryy	0ryy	0ryy	0ryy	0ryy	0ryy
.	.	.	.	.	2AA-/	-da	.	2A-\	.	2c\	.	.	.	.	.	.	.	.	.	.	.	.	.
.	.	.	.	.	2AA-/	nos	.	2A-\	.	2c\	.	.	.	.	.	.	.	.	.	.	.	.	.
.	.	.	.	.	2AA-/	in	.	2A-\	.	2c\	.	.	.	.	.	.	.	.	.	.	.	.	.
=22	=22	=22	=22	=22	=22	=22	=22	=22	=22	=22	=22	=22	=22	=22	=22	=22	=22	=22	=22	=22	=22	=22	=22
0ryy	0ryy	0ryy	0ryy	0ryy	1E-	pa-	.	1G	.	1B-	.	.	0ryy	0ryy	0ryy	0ryy	0ryy	0ryy	0ryy	0ryy	0ryy	0ryy	0ryy
.	.	.	.	.	1AA-	-ce,	.	1A-	.	1c	.	.	.	.	.	.	.	.	.	.	.	.	.
=23	=23	=23	=23	=23	=23	=23	=23	=23	=23	=23	=23	=23	=23	=23	=23	=23	=23	=23	=23	=23	=23	=23	=23
0ryy	0ryy	0ryy	0ryy	0ryy	2BB-/	Mu-	.	2F/	.	2e-\	.	.	0ryy	0ryy	0ryy	0ryy	0ryy	0ryy	0ryy	0ryy	0ryy	0ryy	0ryy
.	.	.	.	.	2BB-/	-tans	.	2F/	.	2d-\	.	.	.	.	.	.	.	.	.	.	.	.	.
.	.	.	.	.	2E-\	Hae-	.	2A-/	.	2c\	.	.	.	.	.	.	.	.	.	.	.	.	.
.	.	.	.	.	2E-\	-ve	.	2G/	.	2B-\	.	.	.	.	.	.	.	.	.	.	.	.	.
=24	=24	=24	=24	=24	=24	=24	=24	=24	=24	=24	=24	=24	=24	=24	=24	=24	=24	=24	=24	=24	=24	=24	=24
0ryy	0ryy	0ryy	0ryy	0ryy	1AA-	no-	.	1A-	.	1c	.	.	0ryy	0ryy	0ryy	0ryy	0ryy	0ryy	0ryy	0ryy	0ryy	0ryy	0ryy
.	.	.	.	.	1C	-men	.	1A-	.	1e-	.	.	.	.	.	.	.	.	.	.	.	.	.
=25	=25	=25	=25	=25	=25	=25	=25	=25	=25	=25	=25	=25	=25	=25	=25	=25	=25	=25	=25	=25	=25	=25	=25
!	!	!	!	!	!	!	!	!	!	!LO:TX:a:Bi:t=tutti	!	!	!	!	!	!	!	!	!	!	!	!	!
!	!	!	!	!	!	!	!LO:DY:a:rj	!	!LO:DY:a:rj	!	!	!LO:DY:a:rj	!	!	!	!	!	!	!	!	!	!	!
0ryy	0ryy	0ryy	0ryy	0ryy	2BB-/	Mu-	f	2F/	f	2e-\	.	f	2f/	2ee-\	0ryy	0ryy	0ryy	0ryy	0ryy	0ryy	0ryy	0ryy	0ryy
.	.	.	.	.	2BB-/	-tans	.	2F/	.	2d-\	.	.	2f/	2dd-\	.	.	.	.	.	.	.	.	.
.	.	.	.	.	2E-\	Hae-	.	2A-/	.	2c\	.	.	2a-/	2cc\	.	.	.	.	.	.	.	.	.
.	.	.	.	.	2E-\	-ve	.	2G/	.	2B-\	.	.	2g/	2b-\	.	.	.	.	.	.	.	.	.
=26	=26	=26	=26	=26	=26	=26	=26	=26	=26	=26	=26	=26	=26	=26	=26	=26	=26	=26	=26	=26	=26	=26	=26
0ryy	0ryy	0ryy	0ryy	0ryy	1E-	no-	.	1G	.	1B-	.	.	1g	1b-	0ryy	0ryy	0ryy	0ryy	0ryy	0ryy	0ryy	0ryy	0ryy
.	.	.	.	.	1A-	-men	.	1A-	.	1A-	.	.	1a-	1a-	.	.	.	.	.	.	.	.	.
!!LO:LB:g=original
=27||	=27||	=27||	=27||	=27||	=27||	=27||	=27||	=27||	=27||	=27||	=27||	=27||	=27||	=27||	=27||	=27||	=27||	=27||	=27||	=27||	=27||	=27||	=27||
!	!	!	!	!	!	!	!	!	!	!LO:TX:a:Bi:t=Solo	!	!	!	!	!	!	!	!	!	!	!	!	!
0ryy	0ryy	0ryy	0ryy	0ryy	2E-\	Vi-	.	2G/	.	2B-\	.	.	0ryy	0ryy	0ryy	0ryy	0ryy	0ryy	0ryy	0ryy	0ryy	0ryy	0ryy
.	.	.	.	.	2E-\	-tam	.	2G/	.	2e-\	.	.	.	.	.	.	.	.	.	.	.	.	.
.	.	.	.	.	2F\	prae-	.	2A-/	.	2e-\	.	.	.	.	.	.	.	.	.	.	.	.	.
.	.	.	.	.	2F\	-sta	.	2A-/	.	2dn\	.	.	.	.	.	.	.	.	.	.	.	.	.
=28	=28	=28	=28	=28	=28	=28	=28	=28	=28	=28	=28	=28	=28	=28	=28	=28	=28	=28	=28	=28	=28	=28	=28
0ryy	0ryy	0ryy	0ryy	0ryy	1Dn	pu-	.	1A-	.	1f	.	.	0ryy	0ryy	0ryy	0ryy	0ryy	0ryy	0ryy	0ryy	0ryy	0ryy	0ryy
.	.	.	.	.	1D	-ram,	.	1F	.	1A-	.	.	.	.	.	.	.	.	.	.	.	.	.
=29	=29	=29	=29	=29	=29	=29	=29	=29	=29	=29	=29	=29	=29	=29	=29	=29	=29	=29	=29	=29	=29	=29	=29
!	!	!	!	!	!	!	!	!	!	!LO:TX:a:Bi:t=tutti	!	!	!	!	!	!	!	!	!	!	!	!	!
0ryy	0ryy	0ryy	0ryy	0ryy	2E-\	I-	.	2E-/	.	2G/	.	.	2e-/	2g/	0ryy	0ryy	0ryy	0ryy	0ryy	0ryy	0ryy	0ryy	0ryy
.	.	.	.	.	2E-\	-tem	.	2G/	.	2B-\	.	.	2g/	2b-/	.	.	.	.	.	.	.	.	.
.	.	.	.	.	2F\	pa-	.	2F/	.	2A-\	.	.	2f/	2a-/	.	.	.	.	.	.	.	.	.
.	.	.	.	.	2BB-/	-ra	.	2Dn/	.	2F/	.	.	2dn/	2f/	.	.	.	.	.	.	.	.	.
=30	=30	=30	=30	=30	=30	=30	=30	=30	=30	=30	=30	=30	=30	=30	=30	=30	=30	=30	=30	=30	=30	=30	=30
0ryy	0ryy	0ryy	0ryy	0ryy	1E-	tu-	.	1E-	.	1G	.	.	1e-	1g	0ryy	0ryy	0ryy	0ryy	0ryy	0ryy	0ryy	0ryy	0ryy
.	.	.	.	.	2BB-/	-tum	.	2Dn/	.	2F/	.	.	2dn/	2f/	.	.	.	.	.	.	.	.	.
!	!	!	!	!	!	!	!	!	!	!LO:TX:a:Bi:t=Solo	!	!	!	!	!	!	!	!	!	!	!	!	!
.	.	.	.	.	2r	.	.	2r	.	[>2B-\	Ut	.	2r	2r	.	.	.	.	.	.	.	.	.
=31	=31	=31	=31	=31	=31	=31	=31	=31	=31	=31	=31	=31	=31	=31	=31	=31	=31	=31	=31	=31	=31	=31	=31
0ryy	0ryy	0ryy	0ryy	0ryy	2E-\	Ut	.	2G/	.	2B-\]	vi-	.	0ryy	0ryy	0ryy	0ryy	0ryy	0ryy	0ryy	0ryy	0ryy	0ryy	0ryy
.	.	.	.	.	2E-\	vi-	.	2G/	.	2e-\	-den-	.	.	.	.	.	.	.	.	.	.	.	.
.	.	.	.	.	2F\	-den-	.	2A-/	.	2e-\	-des	.	.	.	.	.	.	.	.	.	.	.	.
.	.	.	.	.	2G\	-des	.	2B-/	.	2dn\	[[Jesum,]]	.	.	.	.	.	.	.	.	.	.	.	.
!!LO:PB:g=original
=32	=32	=32	=32	=32	=32	=32	=32	=32	=32	=32	=32	=32	=32	=32	=32	=32	=32	=32	=32	=32	=32	=32	=32
0ryy	0ryy	0ryy	0ryy	0ryy	1A-	Je-	.	1A-	.	1c	Je-	.	0ryy	0ryy	0ryy	0ryy	0ryy	0ryy	0ryy	0ryy	0ryy	0ryy	0ryy
.	.	.	.	.	1AA-	-sum,	.	1A-	.	1f	-sum	.	.	.	.	.	.	.	.	.	.	.	.
=33	=33	=33	=33	=33	=33	=33	=33	=33	=33	=33	=33	=33	=33	=33	=33	=33	=33	=33	=33	=33	=33	=33	=33
!	!	!	!	!	!	!	!	!	!	!LO:TX:a:Bi:t=tutti	!	!	!	!	!	!	!	!	!	!	!	!	!
0ryy	0ryy	0ryy	0ryy	0ryy	2BB-/	Sem-	.	2G/	.	2e-\	.	.	2g/	2ee-\	0ryy	0ryy	0ryy	0ryy	0ryy	0ryy	0ryy	0ryy	0ryy
.	.	.	.	.	2BB-/	-per	.	2G/	.	2B-\	.	.	2g/	2b-\	.	.	.	.	.	.	.	.	.
.	.	.	.	.	2BB-/	col-	.	2A-/	.	2c\	.	.	2a-/	2cc\	.	.	.	.	.	.	.	.	.
.	.	.	.	.	2BB-/	-lae-	.	2F/	.	2dn\	.	.	2f/	2ddn\	.	.	.	.	.	.	.	.	.
=34	=34	=34	=34	=34	=34	=34	=34	=34	=34	=34	=34	=34	=34	=34	=34	=34	=34	=34	=34	=34	=34	=34	=34
0ryy	0ryy	0ryy	0ryy	0ryy	1E-	-te-	.	1G	.	1e-	.	.	1g	1ee-	0ryy	0ryy	0ryy	0ryy	0ryy	0ryy	0ryy	0ryy	0ryy
.	.	.	.	.	1E-	-mur,	.	1G	.	1e-	.	.	1g	1ee-	.	.	.	.	.	.	.	.	.
=35	=35	=35	=35	=35	=35	=35	=35	=35	=35	=35	=35	=35	=35	=35	=35	=35	=35	=35	=35	=35	=35	=35	=35
!	!	!	!	!	!	!	!	!	!	!LO:TX:a:Bi:t=Solo	!	!	!	!	!	!	!	!	!	!	!	!	!
!	!	!	!	!	!	!	!LO:DY:a:rj	!	!LO:DY:a:rj	!	!	!LO:DY:a:rj	!	!	!	!	!	!	!	!	!	!	!
0ryy	0ryy	0ryy	0ryy	0ryy	2D-\	Sit	p	2A-/	p	2f\	.	p	0ryy	0ryy	0ryy	0ryy	0ryy	0ryy	0ryy	0ryy	0ryy	0ryy	0ryy
.	.	.	.	.	2D-\	laus	.	2A-/	.	2f\	.	.	.	.	.	.	.	.	.	.	.	.	.
.	.	.	.	.	2D-\	De-	.	2F/	.	2d-\	.	.	.	.	.	.	.	.	.	.	.	.	.
.	.	.	.	.	2D-\	-o	.	2F/	.	2B-\	.	.	.	.	.	.	.	.	.	.	.	.	.
=36	=36	=36	=36	=36	=36	=36	=36	=36	=36	=36	=36	=36	=36	=36	=36	=36	=36	=36	=36	=36	=36	=36	=36
0ryy	0ryy	0ryy	0ryy	0ryy	(>1E-	Pa-	.	1E-	.	1G	.	.	0ryy	0ryy	0ryy	0ryy	0ryy	0ryy	0ryy	0ryy	0ryy	0ryy	0ryy
.	.	.	.	.	2E-\	.	.	1G	.	1B-	.	.	.	.	.	.	.	.	.	.	.	.	.
.	.	.	.	.	2D-\)	-tri	.	.	.	.	.	.	.	.	.	.	.	.	.	.	.	.	.
!!LO:LB:g=original
=37	=37	=37	=37	=37	=37	=37	=37	=37	=37	=37	=37	=37	=37	=37	=37	=37	=37	=37	=37	=37	=37	=37	=37
!	!	!	!	!	!	!	!	!	!	!LO:TX:a:Bi:t=tutti	!	!	!	!	!	!	!	!	!	!	!	!	!
0ryy	0ryy	0ryy	0ryy	0ryy	2C/	Sum-	.	2A-/	.	2A-\	.	.	2a-/	2a-/	0ryy	0ryy	0ryy	0ryy	0ryy	0ryy	0ryy	0ryy	0ryy
.	.	.	.	.	2C/	-mo	.	2A-/	.	2e-\	.	.	2a-/	2ee-\	.	.	.	.	.	.	.	.	.
.	.	.	.	.	2BB-/	Chri-	.	2G/	.	2d-\	.	.	2g/	2dd-\	.	.	.	.	.	.	.	.	.
.	.	.	.	.	2AA-/	-stus	.	2A-/	.	2c\	.	.	2a-/	2cc\	.	.	.	.	.	.	.	.	.
=38	=38	=38	=38	=38	=38	=38	=38	=38	=38	=38	=38	=38	=38	=38	=38	=38	=38	=38	=38	=38	=38	=38	=38
0ryy	0ryy	0ryy	0ryy	0ryy	1E-;>	de-	.	1A-;>	.	1c;>	.	.	1a-;>	1cc;>	0ryy	0ryy	0ryy	0ryy	0ryy	0ryy	0ryy	0ryy	0ryy
.	.	.	.	.	1E-;>	-cus.	.	1G;>	.	1B-;>	.	.	1g;>	1b-;>	.	.	.	.	.	.	.	.	.
=39	=39	=39	=39	=39	=39	=39	=39	=39	=39	=39	=39	=39	=39	=39	=39	=39	=39	=39	=39	=39	=39	=39	=39
!	!	!	!	!	!	!	!	!	!	!LO:TX:a:Bi:t=Solo	!	!	!	!	!	!	!	!	!	!	!	!	!
!	!	!	!	!	!	!	!LO:DY:a:rj	!	!LO:DY:a:rj	!	!	!LO:DY:a:rj	!	!	!	!	!	!	!	!	!	!	!
0ryy	0ryy	0ryy	0ryy	0ryy	2AA-/	Spi-	p	2A-\	p	2c\	.	p	0ryy	0ryy	0ryy	0ryy	0ryy	0ryy	0ryy	0ryy	0ryy	0ryy	0ryy
.	.	.	.	.	2AA-/	-ri-	.	2A-\	.	2c\	.	.	.	.	.	.	.	.	.	.	.	.	.
.	.	.	.	.	2AA-/	-tu-	.	2A-\	.	2c\	.	.	.	.	.	.	.	.	.	.	.	.	.
.	.	.	.	.	2AA-/	-i	.	2A-\	.	2c\	.	.	.	.	.	.	.	.	.	.	.	.	.
=40	=40	=40	=40	=40	=40	=40	=40	=40	=40	=40	=40	=40	=40	=40	=40	=40	=40	=40	=40	=40	=40	=40	=40
0ryy	0ryy	0ryy	0ryy	0ryy	1E-	san-	.	1G	.	1B-	.	.	0ryy	0ryy	0ryy	0ryy	0ryy	0ryy	0ryy	0ryy	0ryy	0ryy	0ryy
.	.	.	.	.	1AA-	-cto	.	1A-	.	1c	.	.	.	.	.	.	.	.	.	.	.	.	.
=41	=41	=41	=41	=41	=41	=41	=41	=41	=41	=41	=41	=41	=41	=41	=41	=41	=41	=41	=41	=41	=41	=41	=41
0ryy	0ryy	0ryy	0ryy	0ryy	2BB-/	Fri-	.	2F/	.	2e-\	.	.	0ryy	0ryy	0ryy	0ryy	0ryy	0ryy	0ryy	0ryy	0ryy	0ryy	0ryy
.	.	.	.	.	2BB-/	-bus	.	2F/	.	2d-\	.	.	.	.	.	.	.	.	.	.	.	.	.
.	.	.	.	.	2E-\	ho-	.	2A-/	.	2c\	.	.	.	.	.	.	.	.	.	.	.	.	.
.	.	.	.	.	2E-\	-nor	.	2G/	.	2B-\	.	.	.	.	.	.	.	.	.	.	.	.	.
!!LO:LB:g=original
=42	=42	=42	=42	=42	=42	=42	=42	=42	=42	=42	=42	=42	=42	=42	=42	=42	=42	=42	=42	=42	=42	=42	=42
0ryy	0ryy	0ryy	0ryy	0ryy	1AA-	u-	.	1A-	.	1c	.	.	0ryy	0ryy	0ryy	0ryy	0ryy	0ryy	0ryy	0ryy	0ryy	0ryy	0ryy
.	.	.	.	.	1C	-nus,	.	1A-	.	1e-	.	.	.	.	.	.	.	.	.	.	.	.	.
=43	=43	=43	=43	=43	=43	=43	=43	=43	=43	=43	=43	=43	=43	=43	=43	=43	=43	=43	=43	=43	=43	=43	=43
!	!	!	!	!	!	!	!	!	!	!LO:TX:a:Bi:t=tutti	!	!	!	!	!	!	!	!	!	!	!	!	!
!	!	!	!	!	!	!	!LO:DY:a:rj	!	!LO:DY:a:rj	!	!	!LO:DY:a:rj	!	!	!	!	!	!	!	!	!	!	!
0ryy	0ryy	0ryy	0ryy	0ryy	2BB-/	Fri-	f	2F/	f	2e-\	.	f	2f/	2ee-\	0ryy	0ryy	0ryy	0ryy	0ryy	0ryy	0ryy	0ryy	0ryy
.	.	.	.	.	2BB-/	-bus	.	2F/	.	2d-\	.	.	2f/	2dd-\	.	.	.	.	.	.	.	.	.
.	.	.	.	.	2E-\	ho-	.	2A-/	.	2c\	.	.	2a-/	2cc\	.	.	.	.	.	.	.	.	.
.	.	.	.	.	2E-\	-nor	.	2G/	.	2B-\	.	.	2g/	2b-\	.	.	.	.	.	.	.	.	.
=44	=44	=44	=44	=44	=44	=44	=44	=44	=44	=44	=44	=44	=44	=44	=44	=44	=44	=44	=44	=44	=44	=44	=44
0ryy	0ryy	0ryy	0ryy	0ryy	1E-	u-	.	1G	.	1B-	.	.	1g	1b-	0ryy	0ryy	0ryy	0ryy	0ryy	0ryy	0ryy	0ryy	0ryy
.	.	.	.	.	2A-\	-nus,	.	2A-/	.	2A-\	.	.	2a-/	2a-/	.	.	.	.	.	.	.	.	.
!	!	!	!	!	!	!	!	!	!	!LO:TX:a:Bi:t=Solo	!	!	!	!	!	!	!	!	!	!	!	!	!
!	!	!	!	!	!	!	!LO:DY:a:rj	!	!LO:DY:a:rj	!	!	!LO:DY:a:rj	!	!	!	!	!	!	!	!	!	!	!
.	.	.	.	.	(>2G-X\	A-	p	2A-/	p	(>2c\	.	p	2r	2r	.	.	.	.	.	.	.	.	.
=45	=45	=45	=45	=45	=45	=45	=45	=45	=45	=45	=45	=45	=45	=45	=45	=45	=45	=45	=45	=45	=45	=45	=45
0ryy	0ryy	0ryy	0ryy	0ryy	1F	.	.	[>1A-	.	1d-	.	.	1r	1r	0ryy	0ryy	0ryy	0ryy	0ryy	0ryy	0ryy	0ryy	0ryy
.	.	.	.	.	2E-\	.	.	1A-]	.	2c\	.	.	1r	1r	.	.	.	.	.	.	.	.	.
.	.	.	.	.	2Dn\)	.	.	.	.	2Bn\)	.	.	.	.	.	.	.	.	.	.	.	.	.
=46	=46	=46	=46	=46	=46	=46	=46	=46	=46	=46	=46	=46	=46	=46	=46	=46	=46	=46	=46	=46	=46	=46	=46
0ryy	0ryy	0ryy	0ryy	0ryy	1E-	men	.	1A-	.	1c	.	.	1r	1r	0ryy	0ryy	0ryy	0ryy	0ryy	0ryy	0ryy	0ryy	0ryy
!	!	!	!	!	!	!	!	!	!	!LO:TX:a:Bi:t=tutti	!	!	!	!	!	!	!	!	!	!	!	!	!
!	!	!	!	!	!	!	!LO:DY:a:rj	!	!LO:DY:a:rj	!	!	!LO:DY:a:rj	!	!	!	!	!	!	!	!	!	!	!
.	.	.	.	.	1F	a-	f	(>1A-	f	(>1c	.	f	(>1a-	(>1cc	.	.	.	.	.	.	.	.	.
=47	=47	=47	=47	=47	=47	=47	=47	=47	=47	=47	=47	=47	=47	=47	=47	=47	=47	=47	=47	=47	=47	=47	=47
0ryy	0ryy	0ryy	0ryy	0ryy	1D-	.	.	1A-	.	1B-	.	.	1a-	1b-	0ryy	0ryy	0ryy	0ryy	0ryy	0ryy	0ryy	0ryy	0ryy
.	.	.	.	.	1E-	.	.	1G)	.	1e-	.	.	1g)	1ee-)	.	.	.	.	.	.	.	.	.
=48	=48	=48	=48	=48	=48	=48	=48	=48	=48	=48	=48	=48	=48	=48	=48	=48	=48	=48	=48	=48	=48	=48	=48
0ryy	0ryy	0ryy	0ryy	0ryy	1A-	-men.	.	1A-	.	1A-)	.	.	1a-	1a-	0ryy	0ryy	0ryy	0ryy	0ryy	0ryy	0ryy	0ryy	0ryy
.	.	.	.	.	1r	.	.	1r	.	1r	.	.	1r	1r	.	.	.	.	.	.	.	.	.
==	==	==	==	==	==	==	==	==	==	==	==	==	==	==	==	==	==	==	==	==	==	==	==
*-	*-	*-	*-	*-	*-	*-	*-	*-	*-	*-	*-	*-	*-	*-	*-	*-	*-	*-	*-	*-	*-	*-	*-
!!!system-decoration: {(s1,s2,s3,s4,s5)}{(s6,s7,s8,s9)}{(s10,s11)}{(s12s13,s14)}{(s15,s16)}{(s17,s18,s19)}
!!!RDF**kern: > = above
!!!RDF**kern: < = below
!!!RDF**kern: N = linked
!!!RDF**kern: i = editorial accidental
!!!EED: Wojciech Jakubiak-Danek
!!!EEV: 2021-04-22
!!!ENC: Krzysztof Stępień
!!!END: 2021-04-06
